icon-themes/sifr_svg/cmd/lc_dbviewtablenames.svg

<svg viewBox="0 0 24 24" xmlns="http://www.w3.org/2000/svg"><path d="m2 3v19h20v-19zm2 2h5v3h-5zm6 0h4v3h-4zm5 0h5v3h-5zm-11 4h5v3h-5zm6 0h4v3h-4zm5 0h5v3h-5zm-11 4h5v3h-5zm6 0h4v3h-4zm5 0h5v3h-5zm-11 4h5v3h-5zm6 0h4v3h-4zm5 0h5v3h-5z" fill="#555753"/></svg>

<svg xmlns="http://www.w3.org/2000/svg" viewBox="0 0 24 24">
  <path
     style="fill:#555753"
     d="M 2,3 V 22 H 22 V 3 Z M 4,5 H 9 V 8 H 4 Z m 6,0 h 4 v 3 h -4 z m 5,0 h 5 V 8 H 15 Z M 4,9 h 5 v 3 H 4 Z m 6,0 h 4 v 3 h -4 z m 5,0 h 5 v 3 H 15 Z M 4,13 h 5 v 3 H 4 Z m 6,0 h 4 v 3 h -4 z m 5,0 h 5 v 3 H 15 Z M 4,17 h 5 v 3 H 4 Z m 6,0 h 4 v 3 h -4 z m 5,0 h 5 v 3 h -5 z"
     />
</svg>
